build/img/icon/mess-wa.svg

<svg xmlns="http://www.w3.org/2000/svg" width="198" height="198" fill="none"><path d="M99 196.62c53.914 0 97.62-43.706 97.62-97.62S152.914 1.38 99 1.38 1.38 45.086 1.38 99 45.086 196.62 99 196.62z" fill="#51B050"/><path fill-rule="evenodd" clip-rule="evenodd" d="M143.27 97.86c0 23.82-19.46 43.12-43.47 43.12-7.62 0-14.77-1.94-21-5.36l-24.07 7.65 7.85-23.14a42.657 42.657 0 01-6.24-22.27c0-23.82 19.46-43.13 43.46-43.13 24.01 0 43.47 19.31 43.47 43.13zM99.8 61.6c-20.15 0-36.54 16.27-36.54 36.26 0 7.93 2.59 15.28 6.96 21.26l-4.56 13.46 14.04-4.46c5.77 3.79 12.68 6 20.11 6 20.14 0 36.54-16.27 36.54-36.26S119.95 61.6 99.8 61.6zm21.95 46.19c-.27-.44-.98-.7-2.04-1.23-1.07-.53-6.31-3.09-7.28-3.44-.98-.35-1.69-.53-2.4.53s-2.75 3.44-3.37 4.14c-.62.71-1.24.8-2.31.27-1.06-.53-4.5-1.65-8.57-5.25-3.16-2.8-5.3-6.26-5.92-7.32-.62-1.05-.07-1.63.46-2.15.48-.48 1.07-1.24 1.6-1.85.54-.62.71-1.06 1.07-1.77.35-.7.18-1.32-.09-1.85s-2.4-5.73-3.29-7.85c-.88-2.11-1.77-1.76-2.39-1.76-.63 0-1.33-.09-2.05-.09-.71 0-1.86.27-2.84 1.32-.97 1.06-3.73 3.62-3.73 8.82s3.82 10.23 4.35 10.93c.54.71 7.37 11.73 18.2 15.96 10.84 4.23 10.84 2.82 12.79 2.64 1.95-.17 6.3-2.55 7.19-5.02.89-2.47.89-4.59.62-5.03z" fill="#FEFEFE"/></svg>

<?xml version="1.0" encoding="UTF-8"?> <svg xmlns="http://www.w3.org/2000/svg" width="198" height="198" viewBox="0 0 198 198" fill="none"> <path d="M99 196.62C152.914 196.62 196.62 152.914 196.62 99C196.62 45.086 152.914 1.38 99 1.38C45.086 1.38 1.38 45.086 1.38 99C1.38 152.914 45.086 196.62 99 196.62Z" fill="#51B050"></path> <path fill-rule="evenodd" clip-rule="evenodd" d="M143.27 97.86C143.27 121.68 123.81 140.98 99.8 140.98C92.18 140.98 85.03 139.04 78.8 135.62L54.73 143.27L62.58 120.13C58.4889 113.423 56.3295 105.716 56.34 97.86C56.34 74.04 75.8 54.73 99.8 54.73C123.81 54.73 143.27 74.04 143.27 97.86ZM99.8 61.6C79.65 61.6 63.26 77.87 63.26 97.86C63.26 105.79 65.85 113.14 70.22 119.12L65.66 132.58L79.7 128.12C85.47 131.91 92.38 134.12 99.81 134.12C119.95 134.12 136.35 117.85 136.35 97.86C136.35 77.87 119.95 61.6 99.8 61.6ZM121.75 107.79C121.48 107.35 120.77 107.09 119.71 106.56C118.64 106.03 113.4 103.47 112.43 103.12C111.45 102.77 110.74 102.59 110.03 103.65C109.32 104.71 107.28 107.09 106.66 107.79C106.04 108.5 105.42 108.59 104.35 108.06C103.29 107.53 99.85 106.41 95.78 102.81C92.62 100.01 90.48 96.55 89.86 95.49C89.24 94.44 89.79 93.86 90.32 93.34C90.8 92.86 91.39 92.1 91.92 91.49C92.46 90.87 92.63 90.43 92.99 89.72C93.34 89.02 93.17 88.4 92.9 87.87C92.63 87.34 90.5 82.14 89.61 80.02C88.73 77.91 87.84 78.26 87.22 78.26C86.59 78.26 85.89 78.17 85.17 78.17C84.46 78.17 83.31 78.44 82.33 79.49C81.36 80.55 78.6 83.11 78.6 88.31C78.6 93.51 82.42 98.54 82.95 99.24C83.49 99.95 90.32 110.97 101.15 115.2C111.99 119.43 111.99 118.02 113.94 117.84C115.89 117.67 120.24 115.29 121.13 112.82C122.02 110.35 122.02 108.23 121.75 107.79Z" fill="#FEFEFE"></path> </svg>
